data/cards/shapes/arrow.svg

<svg width="512" height="512" viewBox="0 0 512 512" fill="none" xmlns="http://www.w3.org/2000/svg">
<path d="M496.5 182.475L389.579 101.076C373.697 88.985 350.84 100.311 350.84 120.276V161.342H52.416C38.5144 161.342 25.1822 166.864 15.3523 176.694C5.52238 186.524 1.15007e-07 199.856 1.15007e-07 213.758V434.635C-0.0003073 436.841 0.615681 439.002 1.77849 440.877C2.9413 442.751 4.60467 444.263 6.58098 445.242C8.55729 446.221 10.7679 446.629 12.9635 446.419C15.1591 446.209 17.2523 445.389 19.007 444.053L100.165 382.267C101.616 381.163 102.791 379.738 103.601 378.104C104.41 376.471 104.831 374.672 104.831 372.849V266.175H350.838V307.245C350.838 327.205 373.695 338.531 389.577 326.445L496.497 245.045C501.315 241.377 505.221 236.645 507.91 231.218C510.599 225.792 511.998 219.818 511.998 213.762C511.998 207.706 510.599 201.732 507.91 196.306C505.221 190.879 501.315 186.147 496.497 182.479L496.5 182.475Z" fill="#50E2CE"/>
<path d="M36.521 213.758C36.521 199.856 42.0434 186.524 51.8733 176.694C61.7032 166.864 75.0354 161.342 88.937 161.342H52.416C38.5144 161.342 25.1822 166.864 15.3523 176.694C5.52238 186.524 0 199.856 0 213.758V434.634C0.000254994 436.839 0.616609 439.001 1.77957 440.875C2.94253 442.748 4.60585 444.26 6.58199 445.239C8.55812 446.218 10.7685 446.626 12.9638 446.416C15.1592 446.206 17.2522 445.387 19.007 444.051L36.521 430.717V213.758Z" fill="#00AE8E"/>
</svg>

<svg xmlns="http://www.w3.org/2000/svg" width="512" height="512" fill="none"><path fill="#50E2CE" d="m496.5 182.475-106.921-81.399c-15.882-12.091-38.739-.765-38.739 19.2v41.066H52.416A52.415 52.415 0 0 0 0 213.758v220.877a11.838 11.838 0 0 0 12.963 11.784 11.838 11.838 0 0 0 6.044-2.366l81.158-61.786a11.833 11.833 0 0 0 4.666-9.418V266.175h246.007v41.07c0 19.96 22.857 31.286 38.739 19.2l106.92-81.4a39.316 39.316 0 0 0 0-62.566l.003-.004Z"/><path fill="#00AE8E" d="M36.521 213.758a52.416 52.416 0 0 1 52.416-52.416H52.416A52.415 52.415 0 0 0 0 213.758v220.876a11.84 11.84 0 0 0 12.964 11.782 11.837 11.837 0 0 0 6.043-2.365l17.514-13.334V213.758Z"/></svg>
